public/flags/gi.svg

<svg xmlns="http://www.w3.org/2000/svg" xmlns:xlink="http://www.w3.org/1999/xlink" viewBox="0 0 512 256">
<rect fill="#da000c" width="512" height="256"/>
<rect fill="#fff" width="512" height="171.5"/>
<g stroke="#000">
<g id="castle_half" fill="#da000c" stroke-linecap="square">
<rect fill="#000" stroke="none" width="64" height="43.992859" x="196.57106" y="116.30338"/>
<path d="M229.81889,153.86465H190.75L182.08989,159.56444V165.60411H229.81889"/>
<path d="M213.46875,128.59375C219.09357,128.59375 223.6875,133.28303 223.6875,139.0625V153.84375H231.03125V97.84375H190.75V153.84375H203.25V139.0625C203.24999,133.50878 207.76491,128.59375 213.46875,128.59375z"/>
<rect fill="#000" stroke="none" width="18.523308" height="33.9594" x="204.5282" y="59.961655"/>
<path d="M223,88.65625H206.79108V82.90625H194.90625V88.65625H186.84375V82.90625H182.03125V93.34375H223M186.84375,93.306038H221.81414V97.843752H186.84375z"/>
<path d="M200.71875,47.625V82.90625H206.79108V73.21875C206.79108,69.589448 209.35314,66.619386 212.9375,66.4375C213.05312,66.431633 213.16418,66.4375 213.28125,66.4375C217.02763,66.437497 220.0625,69.472374 220.0625,73.21875V82.90625H225.84375V47.625z"/>
<path d="M198.53125,42.84375V47.625H227.78125V42.84375z"/>
<path d="M194.78125,33.6875V42.84375H229.875V33.6875H224.46875V38.34375H217.9375V33.6875H207.96875V38.34375H201.4375V33.6875z"/>
<path d="M182.08989,159.56444H230"/>
<path d="M261,156.8125H228.5625L218.78125,161.53125V168.5625H261"/>
<path stroke-linecap="butt" d="M218.771,161.51923H262"/>
</g>
<use xlink:href="#castle_half" transform="matrix(-1,0,0,1,512,0)"/>
<g fill="#f8d80e">
<g stroke-linecap="round">
<path stroke-width="0.768" d="m273.297,150.031c-2.65428,0.88339-5.05329,2.369-7.46888,3.75283-3.1004,1.83163-6.10683,3.82731-8.90451,6.09885-0.98462,0.64912-1.92929,1.36065-2.68911,2.27332-1.02583,0.8776-2.06486,2.05478-1.86885,3.51297,0.0518,0.64315,0.87359-0.75523,1.41401-0.82297,0.94235-0.54095,2.0838-0.7154,3.14219-0.4713,1.27117-1.33857,2.90994-2.23563,4.3249-3.40609,3.00467-2.24222,6.23664-4.16769,9.52502-5.96082,1.1481-0.58838,2.30104-1.18568,3.52508-1.60184-0.33328-1.12498-0.66657-2.24997-0.99985-3.37495z"/>
<path d="M260.40041,157.3913V161.3032"/>
<path d="M262.81691,155.68544V159.56821"/>
<path d="M265.23339,154.17984V158.03797"/>
<path d="M267.64986,152.69367V156.67498"/>
<path stroke-width="0.768" d="m238.891,150.156c-0.39583,1.10417-0.79167,2.20833-1.1875,3.3125,5.53699,2.10036,10.8089,4.87874,15.7978,8.06036,1.69067,1.15075,3.46718,2.26632,4.79593,3.84589,0.2927,0.81098-0.51392,1.48903-1.31413,1.24403-0.73225-0.24871-1.45351-0.53169-2.22629-0.004-1.10637,0.50311-2.10598,2.1416-0.42575,2.69112,2.31528,1.55489,6.08158,0.87915,7.19454-1.84522,0.58146-1.40134,0.61878-3.19523-0.50753-4.34456-2.06261-2.36404-4.79728-4.00804-7.4215-5.67182-4.68917-2.82023-9.57283-5.37389-14.7055-7.28801z"/>
<path d="M254.04985,158.03521 253.73747,161.37469"/>
<path d="M256.8319,159.73914 255.96991,163.00882"/>
<path d="M259.80442,162.01152 257.99552,164.54884"/>
<path d="M260.71528,168.18078 258.10512,166.78032"/>
<path d="M261.52792,165.42898 258.53251,165.70943"/>
<path d="M257.66497,169.7646 257.45987,167.13228"/>
<path d="M256.56809,166.75559 254.09509,168.57779"/>
<path d="M244.67669,152.9368V156.05184"/>
<path d="M250.96338,156.24386V159.77805"/>
<path d="M247.82004,154.59318V157.9121"/>
</g>
<path d="M235.78125,227.5625V235.59375H240.8125V231.5625H247.65625V235.59375H253.0625V227.5625zM235.78125,238.625V246.6875H253.0625V238.625H247.65625V242.65625H240.8125V238.625z"/>
<rect width="4.9902272" height="58.115017" x="253.05186" y="193.65144"/>
<rect width="4.9902272" height="50.060368" x="253.05186" y="198.6788"/>
<path stroke-width="1.024" d="M255.54688,179.40625 266.17188,185.59375 255.54688,191.75 244.92188,185.59375zM241.32813,183.375H238.54688V187.8125H241.32813L255.54688,196.0625 269.76563,187.8125H272.54688V183.375H269.76563L255.54688,175.125z"/>
<path stroke-width="1.024" d="m255.344,164.281c-2.41872,0.33922-4.22593,2.73018-4.09375,5.13412,0.009,3.73773-0.0185,7.47634,0.0141,11.2135,0.12824,2.40829,2.23219,4.56615,4.6744,4.58823,1.98493,0.18804,3.97892-0.97232,4.81154-2.77961-0.57292-0.34375-1.14583-0.6875-1.71875-1.03125-0.44378,1.18388-1.72345,1.91762-2.96875,1.78125-1.63507,0.046-2.95917-1.54398-2.8125-3.13412,0.01-3.71344-0.0192-7.42801,0.0146-11.1407,0.0899-1.5151,1.53488-2.75487,3.04795-2.60016,0.6265-0.17973,1.48748,0.67715,1.8747-0.0623,0.5838-0.82944-0.41442-1.47737-0.96875-1.9374-0.61348-0.0841-1.25418-0.008-1.8747-0.0316zm5.78125,3.90625c-0.39638,0.7459-1.21626,1.18923-1.875,1.58041v7.51334c0.66667,0.38542,1.33333,0.77083,2,1.15625-0.008-3.20377,0.0153-6.40813-0.0117-9.61152-0.0315-0.19722-0.008-0.4984-0.11328-0.63848z"/>
</g>
<g fill="#da000c">
<rect fill="#000" stroke="none" width="29.328571" height="53.254513" x="240.80301" y="38.351128"/>
<path d="M238.75,38.375V82.9375H248.0625V69.71875C248.0625,66.669822 250.01501,62.4375 256,62.4375C261.98499,62.4375 263.9375,66.669822 263.9375,69.71875V82.9375H273.25V38.375zM254.5625,43.375H257.4375V58.625H254.5625zM246.3125,46.375H249.21875V57.53125H246.3125zM262.78125,46.375H265.6875V57.53125H262.78125z"/>
<path d="M235.59375,31.96875V38.3125H276.40625V31.96875z"/>
<path d="M231.75,24.59375V31.96875H280.25V24.59375H274.15625V28.65625H267.28125V24.59375H259.4375V28.65625H252.5625V24.59375H244.71875V28.65625H237.84375V24.59375z"/>
<path d="M222.75,97.84375V102.4375H289.25V97.84375z"/>
<path d="M220.03125,82.90625V97.84375H291.96875V82.90625H285.15625V88.65625H276.09375V82.90625H263.9375V88.65625H248.0625V82.90625H235.90625V88.65625H226.84375V82.90625z"/>
<path stroke-linejoin="round" d="M228.6875,102.4375V156.78125H241.53125V136.4375C241.53125,126.85477 247.92755,122.34375 256,122.34375C263.75894,122.34375 270.46875,126.85477 270.46875,136.4375V156.78125H283.3125V102.4375z"/>
</g>
</g>
</svg>

<svg xmlns="http://www.w3.org/2000/svg" xmlns:xlink="http://www.w3.org/1999/xlink" id="flag-icons-gi" viewBox="0 0 640 480">
  <path fill="#da000c" d="M0 0h640v480H0z"/>
  <path fill="#fff" d="M0 0h640v321.6H0z"/>
  <g stroke="#000" transform="translate(-160)scale(1.875)">
    <g id="gi-a" fill="#da000c" stroke-linecap="square">
      <path fill="#000001" stroke="none" d="M196.6 116.3h64v44h-64z"/>
      <path d="M229.8 153.9h-39l-8.7 5.7v6h47.7m-16.3-37c5.6 0 10.2 4.7 10.2 10.5v14.7h7.3v-56h-40.3v56h12.6v-14.7c0-5.6 4.5-10.5 10.2-10.5z"/>
      <path fill="#000001" stroke="none" d="M204.5 60h18.6v34h-18.6z"/>
      <path d="M223 88.7h-16.2v-5.8h-11.9v5.8h-8v-5.8H182v10.4h41m-36.2 0h35v4.5h-35zm14-45.7V83h6v-9.7c0-3.6 2.5-6.6 6.1-6.8h.4a6.8 6.8 0 0 1 6.8 6.8V83h5.7V47.6zm-2.3-4.8v4.8h29.3v-4.8zm-3.7-9.1v9.1h35v-9.1h-5.3v4.7h-6.6v-4.7h-10v4.7h-6.5v-4.7zM182 159.6h48m31-2.8h-32.4l-9.8 4.7v7H261"/>
      <path stroke-linecap="butt" d="M218.8 161.5H262"/>
    </g>
    <use xlink:href="#gi-a" width="100%" height="100%" transform="matrix(-1 0 0 1 512 0)"/>
    <g fill="#f8d80e">
      <g stroke-linecap="round">
        <path stroke-width=".8" d="M273.3 150c-2.7 1-5 2.4-7.5 3.8a72.4 72.4 0 0 0-8.9 6c-1 .7-2 1.4-2.7 2.4-1 .8-2 2-1.8 3.5 0 .6.8-.8 1.4-.9a4.4 4.4 0 0 1 3.1-.4c1.3-1.4 3-2.3 4.4-3.4a77.4 77.4 0 0 1 13-7.6z"/>
        <path d="M260.4 157.4v3.9m2.4-5.6v3.9m2.4-5.4v3.8m2.5-5.3v4"/>
        <path stroke-width=".8" d="m238.9 150.2-1.2 3.3a86.6 86.6 0 0 1 15.8 8c1.7 1.2 3.5 2.3 4.8 3.9.3.8-.5 1.5-1.3 1.2-.7-.2-1.5-.5-2.2 0-1.1.5-2.1 2.2-.5 2.7 2.4 1.6 6.1.9 7.2-1.8.6-1.4.7-3.2-.5-4.4-2-2.3-4.8-4-7.4-5.7a89.2 89.2 0 0 0-14.7-7.2z"/>
        <path d="m254 158-.3 3.4m3.1-1.7-.8 3.3m3.8-1-1.8 2.6m2.7 3.6-2.6-1.4m3.4-1.4-3 .3m-.8 4-.2-2.6m-1-.3-2.4 1.8m-9.4-15.7v3.1m6.3.3v3.5m-3.2-5.2v3.3"/>
      </g>
      <path d="M235.8 227.6v8h5v-4h6.9v4h5.4v-8zm0 11v8H253v-8h-5.4v4h-6.9v-4z"/>
      <path d="M253 193.7h5v58h-5z"/>
      <path d="M253 198.7h5v50h-5zm2.6-19.3 10.6 6.2-10.6 6.2-10.7-6.2zm-14.3 4h-2.7v4.4h2.7l14.3 8.3 14.2-8.3h2.8v-4.4h-2.8l-14.2-8.3z"/>
      <path d="M255.3 164.3a5 5 0 0 0-4 5.1v11.2a5 5 0 0 0 4.6 4.6 4.9 4.9 0 0 0 4.8-2.8l-1.7-1a2.9 2.9 0 0 1-3 1.8c-1.6 0-2.9-1.6-2.7-3.1v-11.2a2.9 2.9 0 0 1 3-2.6c.6-.2 1.5.7 1.9 0 .6-.9-.4-1.5-1-2zm5.8 3.9a5 5 0 0 1-1.9 1.6v7.5l2 1.1v-10.2z"/>
    </g>
    <g fill="#da000c">
      <path fill="#000001" stroke="none" d="M240.8 38.4h29.3v53.2h-29.3z"/>
      <path d="M238.8 38.4v44.5h9.3V69.7c0-3 2-7.3 7.9-7.3s8 4.3 8 7.3V83h9.2V38.4zm15.8 5h2.8v15.2h-2.8zm-8.3 3h3v11.1h-3zm16.5 0h2.9v11.1h-3zM235.6 32v6.3h40.8V32zm-3.8-7.4V32h48.5v-7.4h-6.1v4h-7v-4h-7.8v4h-6.8v-4h-7.9v4H238v-4zm-9 73.2v4.6h66.5v-4.6z"/>
      <path d="M220 82.9v15h72v-15h-6.8v5.8H276v-5.8h-12.2v5.8H248v-5.8h-12.2v5.8h-9v-5.8z"/>
      <path stroke-linejoin="round" d="M228.7 102.4v54.4h12.8v-20.4c0-9.5 6.4-14 14.5-14 7.8 0 14.5 4.5 14.5 14v20.4h12.8v-54.4z"/>
    </g>
  </g>
</svg>
